images/calendar-icon.svg

<svg width="18" height="18" viewBox="0 0 18 18" fill="none" xmlns="http://www.w3.org/2000/svg">
<path fill-rule="evenodd" clip-rule="evenodd" d="M4.80029 0H6.00029V3.6H4.80029V0ZM18 4.8002C18 2.81197 16.3882 1.2002 14.4 1.2002V2.4002C15.7255 2.4002 16.8 3.47471 16.8 4.8002H1.2C1.2 3.47471 2.27452 2.4002 3.6 2.4002V1.2002C1.61177 1.2002 0 2.81197 0 4.8002V14.4002C0 16.3884 1.61177 18.0002 3.6 18.0002H14.4C16.3882 18.0002 18 16.3884 18 14.4002V4.8002ZM7.19971 2.4002H10.7997V1.2002H7.19971V2.4002ZM13.2 0H12V3.6H13.2V0Z" fill="#FFA200"/>
<path fill-rule="evenodd" clip-rule="evenodd" d="M2 9C2 7.89543 2.89543 7 4 7C5.10457 7 6 7.89543 6 9C6 10.1046 5.10457 11 4 11C2.89543 11 2 10.1046 2 9ZM7 9C7 7.89543 7.89543 7 9 7C10.1046 7 11 7.89543 11 9C11 10.1046 10.1046 11 9 11C7.89543 11 7 10.1046 7 9ZM4 12C2.89543 12 2 12.8954 2 14C2 15.1046 2.89543 16 4 16C5.10457 16 6 15.1046 6 14C6 12.8954 5.10457 12 4 12ZM7 14C7 12.8954 7.89543 12 9 12C10.1046 12 11 12.8954 11 14C11 15.1046 10.1046 16 9 16C7.89543 16 7 15.1046 7 14ZM14 7C12.8954 7 12 7.89543 12 9C12 10.1046 12.8954 11 14 11C15.1046 11 16 10.1046 16 9C16 7.89543 15.1046 7 14 7Z" fill="white"/>
</svg>

<svg width="18" height="18" fill="none" xmlns="http://www.w3.org/2000/svg"><path fill-rule="evenodd" clip-rule="evenodd" d="M4.8 0H6v3.6H4.8V0ZM18 4.8a3.6 3.6 0 0 0-3.6-3.6v1.2a2.4 2.4 0 0 1 2.4 2.4H1.2a2.4 2.4 0 0 1 2.4-2.4V1.2A3.6 3.6 0 0 0 0 4.8v9.6A3.6 3.6 0 0 0 3.6 18h10.8a3.6 3.6 0 0 0 3.6-3.6V4.8ZM7.2 2.4h3.6V1.2H7.2v1.2Zm6-2.4H12v3.6h1.2V0Z" fill="#FFA200"/><path fill-rule="evenodd" clip-rule="evenodd" d="M2 9a2 2 0 1 1 4 0 2 2 0 0 1-4 0Zm5 0a2 2 0 1 1 4 0 2 2 0 0 1-4 0Zm-3 3a2 2 0 1 0 0 4 2 2 0 0 0 0-4Zm3 2a2 2 0 1 1 4 0 2 2 0 0 1-4 0Zm7-7a2 2 0 1 0 0 4 2 2 0 0 0 0-4Z" fill="#fff"/></svg>
